icons/jamstack-icon.svg

<?xml version="1.0" encoding="UTF-8"?>
<svg width="256px" height="256px" viewBox="0 0 256 256" version="1.1" xmlns="http://www.w3.org/2000/svg" xmlns:xlink="http://www.w3.org/1999/xlink" preserveAspectRatio="xMidYMid">
    <g>
        <path d="M128,0 C57.2214503,0 0,57.2214503 0,128 C0,198.778219 57.2214503,256 128,256 C198.778219,256 256,198.778219 256,128 L256,0 L128,0 Z" fill="#F0047F"></path>
        <path d="M121.040103,134.959897 L121.040103,228.271897 C71.3767366,225.435004 31.4001877,185.927043 27.8251844,136.461862 L27.7280206,134.959897 L121.040103,134.959897 Z M212.001858,134.959897 C209.401237,184.623509 173.18574,224.599736 127.84326,228.174733 L126.466477,228.271897 L126.466477,134.959897 L212.001858,134.959897 Z M212.114168,43.8855019 L212.114168,129.533523 L126.466477,129.533523 L126.466477,43.8855019 L212.114168,43.8855019 Z" fill="#FFFFFF"></path>
    </g>
</svg>

<svg xmlns="http://www.w3.org/2000/svg" viewBox="0 0 256 256">
  <path fill="#f0047f" d="M128 0C57.221 0 0 57.221 0 128c0 70.778 57.221 128 128 128 70.778 0 128-57.222 128-128V0z"/>
  <path fill="#fff" d="M121.04 134.96v93.312c-49.663-2.837-89.64-42.345-93.215-91.81l-.097-1.502zm90.962 0c-2.6 49.664-38.816 89.64-84.159 93.215l-1.377.097V134.96zm.112-91.074v85.648h-85.648V43.886z"/>
</svg>
